X: 546
T: Laborie's Hornpipe
%R: hornpipe
B: "Twenty Four Country Dances for the Year 1805", Tho. Preston, ed. p.233 #2
F: http://folkopedia.efdss.org/images/archive/0/02/20121211105513%21Preston_24_1805.PDF
Z: 2014 John Chambers <jc:trillian.mit.edu>
M: C
L: 1/8
K: A
|:\
e>fg>a e>fg>a | e>dc>B d>BA>G |\
e>fg>a e>fg>a | e>dcB A2 A2 :|
|:\
E>AGB cAdB | cAec aecA |\
E>AGB cAdB | c>ABG A2A2 :|
%%begintext align
%% 1st and 2d Cu. change sides. back again.
%% lead down the middle up again hands 4
%% round at top.
%%endtext

%%sep 1 1 500
%%sep 1 1 500
